src/topics/icons/t3.svg

<svg height="257" preserveAspectRatio="xMidYMid" viewBox="0 0 256 257" width="256" xmlns="http://www.w3.org/2000/svg"><g transform="translate(42 43)"><path d="m168.377 83.784c0 46.231-37.477 83.708-83.708 83.708s-83.708-37.477-83.708-83.708 37.477-83.708 83.708-83.708 83.708 37.477 83.708 83.708" fill="#4d37b9"/><path d="m37.509 44.972 37.24-21.501c6.189-3.573 13.815-3.573 20.005 0l37.24 21.501c6.19 3.573 10.002 10.177 10.002 17.324v43.002c0 7.147-3.812 13.751-10.002 17.324l-37.24 21.501c-6.19 3.574-13.816 3.574-20.005 0l-37.24-21.501c-6.19-3.573-10.003-10.177-10.003-17.324v-43.002c0-7.147 3.813-13.751 10.003-17.324" fill="#fff"/></g><g fill="#4d37b9" transform="translate(90 99)"><path d="m36.537.521c9.416.001 18.832-.029 28.248.011 5.789.025 7.561 1.879 7.57 7.71.002 1.457.015 2.914-.003 4.371-.056 4.656-2.06 6.712-6.804 6.796-4.258.076-8.519-.026-12.778.029-5.013.065-6.869 1.929-6.886 6.95-.034 9.864.009 17.64 0 27.504 0 9.462-1.694 10.341-8.073 10.359-9.474.027-10.353-.846-10.353-10.359 0-9.08.025-18.159 0-27.239-.015-5.416-1.806-7.177-7.296-7.22-4.147-.033-8.297.058-12.443-.025-4.711-.094-6.684-2.164-6.733-6.866-.016-1.569-.008-3.139-.002-4.708.023-5.328 1.892-7.255 7.305-7.298 7.173-.057 14.348-.015 21.522-.015 2.242-.001 4.484 0 6.726 0"/><path d="m54.132 33.591c0-2.272 1.809-2.441 1.809-2.441h6.354c3.745 0 6.733 3.577 6.733 7.07 0 2.606-1.219 4.321-1.837 5.024-.19.216-.194.53-.014.755.632.791 1.935 2.699 1.935 4.993 0 3.029-2.104 7.027-6.691 7.027h-6.48s-1.725.463-1.725-1.936c0-2.398 1.725-2.146 1.725-2.146h6.354c1.809 0 2.062-1.304 2.062-2.987 0-1.684-.757-3.03-2.062-3.03h-6.354s-1.767.126-1.767-2.188c0-2.315 1.767-2.399 1.767-2.399h6.354c1.473 0 2.062-1.599 2.062-2.861s-.589-2.567-2.062-2.567h-6.354s-1.809-.042-1.809-2.314"/></g><path d="m220.841 42.795c0 4.416-3.579 7.995-7.995 7.995-4.415 0-7.995-3.579-7.995-7.995 0-4.415 3.58-7.995 7.995-7.995 4.416 0 7.995 3.58 7.995 7.995" fill="#b300e3"/><path d="m256 127.476c0 4.415-3.579 7.995-7.995 7.995-4.415 0-7.995-3.58-7.995-7.995 0-4.416 3.58-7.995 7.995-7.995 4.416 0 7.995 3.579 7.995 7.995" fill="#4e00bf"/><path d="m221.114 212.52c0 4.416-3.579 7.995-7.995 7.995-4.415 0-7.995-3.579-7.995-7.995 0-4.415 3.58-7.995 7.995-7.995 4.416 0 7.995 3.58 7.995 7.995" fill="#0ebbf0"/><path d="m136.369 248.305c0 4.415-3.579 7.994-7.995 7.994-4.415 0-7.995-3.579-7.995-7.994 0-4.416 3.58-7.995 7.995-7.995 4.416 0 7.995 3.579 7.995 7.995" fill="#93e477"/><path d="m51.175 212.52c0 4.416-3.579 7.995-7.995 7.995-4.415 0-7.994-3.579-7.994-7.995 0-4.415 3.579-7.995 7.994-7.995 4.416 0 7.995 3.58 7.995 7.995" fill="#dde6ec"/><path d="m15.99 127.626c0 4.415-3.58 7.995-7.995 7.995-4.416 0-7.995-3.58-7.995-7.995 0-4.416 3.579-7.995 7.995-7.995 4.415 0 7.995 3.579 7.995 7.995" fill="#fe4545"/><path d="m51.026 42.881c0 4.415-3.58 7.995-7.995 7.995-4.416 0-7.995-3.58-7.995-7.995s3.579-7.995 7.995-7.995c4.415 0 7.995 3.58 7.995 7.995" fill="#feb900"/><path d="m136.369 7.995c0 4.415-3.579 7.995-7.995 7.995-4.415 0-7.995-3.58-7.995-7.995 0-4.416 3.58-7.995 7.995-7.995 4.416 0 7.995 3.579 7.995 7.995" fill="#47e8e2"/></svg>

<?xml version="1.0" encoding="UTF-8" standalone="no"?>
<svg width="256px" height="257px" viewBox="0 0 256 257" version="1.1" xmlns="http://www.w3.org/2000/svg" xmlns:xlink="http://www.w3.org/1999/xlink" preserveAspectRatio="xMidYMid">
	<g>
		<g transform="translate(42.000000, 43.000000)">
			<path d="M168.377,83.784 C168.377,130.015 130.9,167.492 84.669,167.492 C38.438,167.492 0.961,130.015 0.961,83.784 C0.961,37.553 38.438,0.076 84.669,0.076 C130.9,0.076 168.377,37.553 168.377,83.784" fill="#4D37B9"></path>
			<path d="M37.509,44.972 L74.749,23.471 C80.938,19.898 88.564,19.898 94.754,23.471 L131.994,44.972 C138.184,48.545 141.996,55.149 141.996,62.296 L141.996,105.298 C141.996,112.445 138.184,119.049 131.994,122.622 L94.754,144.123 C88.564,147.697 80.938,147.697 74.749,144.123 L37.509,122.622 C31.319,119.049 27.506,112.445 27.506,105.298 L27.506,62.296 C27.506,55.149 31.319,48.545 37.509,44.972" fill="#FFFFFF"></path>
		</g>
		<g transform="translate(90.000000, 99.000000)" fill="#4D37B9">
			<path d="M36.537,0.521 C45.953,0.522 55.369,0.492 64.785,0.532 C70.574,0.557 72.346,2.411 72.355,8.242 C72.357,9.699 72.37,11.156 72.352,12.613 C72.296,17.269 70.292,19.325 65.548,19.409 C61.29,19.485 57.029,19.383 52.77,19.438 C47.757,19.503 45.901,21.367 45.884,26.388 C45.85,36.252 45.893,44.028 45.884,53.892 C45.884,63.354 44.19,64.233 37.811,64.251 C28.337,64.278 27.458,63.405 27.458,53.892 C27.458,44.812 27.483,35.733 27.458,26.653 C27.443,21.237 25.652,19.476 20.162,19.433 C16.015,19.4 11.865,19.491 7.719,19.408 C3.008,19.314 1.035,17.244 0.986,12.542 C0.97,10.973 0.978,9.403 0.984,7.834 C1.007,2.506 2.876,0.579 8.289,0.536 C15.462,0.479 22.637,0.521 29.811,0.521 C32.053,0.52 34.295,0.521 36.537,0.521"></path>
			<path d="M54.132,33.591 C54.132,31.319 55.941,31.15 55.941,31.15 L62.295,31.15 C66.04,31.15 69.028,34.727 69.028,38.22 C69.028,40.826 67.809,42.541 67.191,43.244 C67.001,43.46 66.997,43.774 67.177,43.999 C67.809,44.79 69.112,46.698 69.112,48.992 C69.112,52.021 67.008,56.019 62.421,56.019 L55.941,56.019 C55.941,56.019 54.216,56.482 54.216,54.083 C54.216,51.685 55.941,51.937 55.941,51.937 L62.295,51.937 C64.104,51.937 64.357,50.633 64.357,48.95 C64.357,47.266 63.6,45.92 62.295,45.92 L55.941,45.92 C55.941,45.92 54.174,46.046 54.174,43.732 C54.174,41.417 55.941,41.333 55.941,41.333 L62.295,41.333 C63.768,41.333 64.357,39.734 64.357,38.472 C64.357,37.21 63.768,35.905 62.295,35.905 L55.941,35.905 C55.941,35.905 54.132,35.863 54.132,33.591"></path>
		</g>
		<g>
			<path d="M220.841,42.795 C220.841,47.211 217.262,50.79 212.846,50.79 C208.431,50.79 204.851,47.211 204.851,42.795 C204.851,38.38 208.431,34.8 212.846,34.8 C217.262,34.8 220.841,38.38 220.841,42.795" fill="#B300E3"></path>
			<path d="M256,127.476 C256,131.891 252.421,135.471 248.005,135.471 C243.59,135.471 240.01,131.891 240.01,127.476 C240.01,123.06 243.59,119.481 248.005,119.481 C252.421,119.481 256,123.06 256,127.476" fill="#4E00BF"></path>
			<path d="M221.114,212.52 C221.114,216.936 217.535,220.515 213.119,220.515 C208.704,220.515 205.124,216.936 205.124,212.52 C205.124,208.105 208.704,204.525 213.119,204.525 C217.535,204.525 221.114,208.105 221.114,212.52" fill="#0EBBF0"></path>
			<path d="M136.369,248.305 C136.369,252.72 132.79,256.299 128.374,256.299 C123.959,256.299 120.379,252.72 120.379,248.305 C120.379,243.889 123.959,240.31 128.374,240.31 C132.79,240.31 136.369,243.889 136.369,248.305" fill="#93E477"></path>
			<path d="M51.175,212.52 C51.175,216.936 47.596,220.515 43.18,220.515 C38.765,220.515 35.186,216.936 35.186,212.52 C35.186,208.105 38.765,204.525 43.18,204.525 C47.596,204.525 51.175,208.105 51.175,212.52" fill="#DDE6EC"></path>
			<path d="M15.99,127.626 C15.99,132.041 12.41,135.621 7.995,135.621 C3.579,135.621 0,132.041 0,127.626 C0,123.21 3.579,119.631 7.995,119.631 C12.41,119.631 15.99,123.21 15.99,127.626" fill="#FE4545"></path>
			<path d="M51.026,42.881 C51.026,47.296 47.446,50.876 43.031,50.876 C38.615,50.876 35.036,47.296 35.036,42.881 C35.036,38.466 38.615,34.886 43.031,34.886 C47.446,34.886 51.026,38.466 51.026,42.881" fill="#FEB900"></path>
			<path d="M136.369,7.995 C136.369,12.41 132.79,15.99 128.374,15.99 C123.959,15.99 120.379,12.41 120.379,7.995 C120.379,3.579 123.959,0 128.374,0 C132.79,0 136.369,3.579 136.369,7.995" fill="#47E8E2"></path>
		</g>
	</g>
</svg>
